!! 00019] TT[TB
!! Zh. Ch. BM 00625, NN), BZ 1289)
!!!OTL: Wo yiren kanle yi tai xi
!!!ARE: Asia, China, Shanxi
!! Ethnic Group: Han
!! MM,
!!!SCT: C0817B
!!!YEM: Copyright 1995, estate of Helmut Schaffrath.
**kern
*ICvox
*Ivox
*M2/4
*k[b-]
*F:
{4cc
8.g
16cc
=1
8cc
8cc
4ee
=2
8cc
16cc
16ee
16cc
16b-
16e
16f
=3
2g}
=4
{4cc
8g
8cc
=5
8ee
8cc
4cc
=6
8f
16e
16f
8g
8f
=7
2c}
=8
{8f
16d
16c
16Bn
16c
16d
16c
=9
8c
4.c
=10
4f
4g
=11
16cc
16e
16cc
16g
4b-}
=12
{8g
8g
8.cc
16ee
=13
8.e
16f
4g
=14
8b-
16g
16b-
8g
8f
=15
2c}
=16
{8f
16d
16c
16Bn
16c
16d
16c
=17
8c
4.c
=18
4f
4g
=19
8cc
16dd
16cc
4g}
=20
{4g
8.cc
16dd
=21
8cc
8f
4g
=22
8.g
16cc
8f
16d
16c
=23
2c}
=24
{8f
8f
8d
8c
=25
8Bn
8Bn
4c
=26
8f
16d
16f
8c
8c
=27
8Bn
8Bn
4c}
=28
{8r
8g
8f
8g
=29
8.cc
16dd
[4cc
=30
2cc_
=31
8cc]}
{16dd
16cc
8cc
8cc
=32
8r
16dd
16cc
8cc
8cc
=33
8r
16dd
16cc
8bn
8cc}
=34
{8bn
8cc
8.ff
16dd
=35
[2cc
=36
2cc]
=37
4r
4r}
=38
{4f
8.g
16cc
=39
8f
16g
16f
8c
8c
=40
4f
8.g
16dd
=41
8cc
16dd
16cc
8g
8e}
=42
{8cc
16g
16cc
8g
8f
=43
16g
16f
4c
8c
=44
4d
4G
=45
8f
16d
16c
8c
8c}
=46
{8f
16c
16f
16g
16cc
8f
=47
2g
=48
4cc
4dd
=49
16cc
16g
[4.cc
=50
2cc]}
=51
{8cc
16g
16cc
16g
16a
16g
16f
=52
16g
16f
8c
4f
=53
8f
16e
16f
16g
16cc
16f
16g
=54
2c}
=55
{8f
16d
16c
16d
16c
8G
=56
8c
4.c}
=57
{4f
8.g
16cc
=58
8f
16g
16f
8c
8c
=59
4f
8.g
16dd
=60
8cc
16dd
16cc
8g
8e}
=61
{8cc
16g
16cc
8g
8f
=62
16g
16f
4c
8c
=63
4d
4G
=64
8f
16d
16c
8c
8c}
=65
{8f
16c
16f
16g
16cc
8f
=66
2g
=67
4cc
4dd
=68
16cc
16g
[4.cc
=69
2cc]}
=70
{8cc
16g
16cc
16g
16a
16g
16f
=71
16g
16f
8c
4f
=72
8f
16e
16f
16g
16cc
16f
16g
=73
2c}
!!	ERROR: Second "MEL" statement encountered in input line 6297.
*k[b-]
*F:
{4r
4r
=1
8dd
16dd
16cc
16dd
16cc
8g
=2
8cc
4.cc}
=3
{8.cc
16cc
8b-
8cc
=4
4dd
16dd
16cc
8g
=5
[2cc
=6
2cc]}
==
!!!AGN: Xiaodiao, Erge
!! Textbeilage kopiert.  Fortsetzung der Platte auf Band 20
!!    +++Dieses Lied ist GETEILT! Der zweite Teil ist im vorigen Dokument
!!    unter gleicher Signatur kodiert. +++ Fuer Phr. 1-4 gilt Grundton Eb, 1=-7).
!!    Vereinzelt Verzierungen, Glissandi.
!!!ONB: ESAC (Essen Associative Code) Database: CHINA
!!!AMT: simple duple
!!!AIN: vox
!!!EED: Helmut Schaffrath
!!!EEV: 1.0
*-
!!!ONB: Tied note syntax fixed by Craig Sapp, 2004/05/03/
